!!!!SEGMENT: pl-wn--mus-iii-62-770--002_zelenski-wladyslaw--dwie-piesni-niepewnosc.krn
!!!cenid: 18xx:3763
!!!COM: Żeleński, Władysław
!!!COM-rismid: pe41024455
!!!CDT:
!!!CNT:
!!!GTL: Dwie pieśni
!!!OTL: Niepewność
!!!PDT:
!!!AGN:
!!!SMS-siglum: PL-Wn
!!!SMS-shelfmark: Mus.III.62.770
!!!SMS-shelfwork: 002 G
!!!SMS-variant:
!!!SMS-altvar:
!!!NIFC-rismid:
!!!URL-scan: https://polona.pl/item/dwie-piesni-z-towarzyszeniem-fortepianu,MTA2MzEwNDQx/0/#info:metadata
!!!ONB-nifc:
!!!key: A-
**kern	**dynam	**kern	**dynam	**kern	**text	**text	**text	**dynam
*part3	*part3	*part2	*part2	*part1	*part1	*part1	*part1	*part1
*staff3	*	*staff2	*	*staff1	*staff1	*staff1	*staff1	*
*	*	*I"Fortepian.	*	*I"Śpiew.	*	*	*	*
*Ipiano	*	*Ipiano	*	*	*Isoprn	*	*	*
*ICklav	*	*ICklav	*	*	*ICvox	*	*	*
*IGacmp	*	*IGacmp	*	*	*IGsolo	*	*	*
*clefF4	*	*clefG2	*	*clefG2	*	*	*	*
*k[b-e-a-d-]	*	*k[b-e-a-d-]	*	*k[b-e-a-d-]	*	*	*	*
*A-:	*	*A-:	*	*A-:	*	*	*	*
*M3/4	*	*M3/4	*	*M3/4	*	*	*	*
=1	=1	=1	=1	=1	=1	=1	=1	=1
!	!	!	!	!LO:TX:a:B:t=Moderato.	!	!	!	!
4AA-/	.	4r	p	2.r	.	.	.	.
4A-\ 4c	.	(4.e-/	.	.	.	.	.	.
4A-\ 4c	.	.	.	.	.	.	.	.
.	.	8en/	.	.	.	.	.	.
=2	=2	=2	=2	=2	=2	=2	=2	=2
2.A-\ 2.d-	.	8f/L	.	2.r	.	.	.	.
.	.	8b-/	.	.	.	.	.	.
.	.	8a-/	.	.	.	.	.	.
.	.	8g/	.	.	.	.	.	.
.	.	8f/	.	.	.	.	.	.
.	.	8g/J)	.	.	.	.	.	.
=3	=3	=3	=3	=3	=3	=3	=3	=3
4AA-/	.	(8e-/L	.	2.r	.	.	.	.
.	.	8cc/J	.	.	.	.	.	.
4A-\ 4c	.	4.e-/	.	.	.	.	.	.
4A-\ 4c	.	.	.	.	.	.	.	.
.	.	8en/	.	.	.	.	.	.
=4	=4	=4	=4	=4	=4	=4	=4	=4
2.A-\ 2.d-	.	8f/L	.	2.r	.	.	.	.
.	.	8cc/	.	.	.	.	.	.
.	.	8b-/	.	.	.	.	.	.
.	.	8a-/	.	.	.	.	.	.
.	.	8f/	.	.	.	.	.	.
.	.	8g/J)	.	.	.	.	.	.
=5	=5	=5	=5	=5	=5	=5	=5	=5
*^	*	*	*	*	*	*	*	*
!	!	!	!	!LO:HP:a	!	!	!	!	!
(4c/	[2.A-\	.	(8e-/	<	2.r	.	.	.	.
.	.	.	4a-/	.	.	.	.	.	.
4d-/	.	.	.	.	.	.	.	.	.
.	.	.	8en/L	.	.	.	.	.	.
4B-/	.	.	8g/	.	.	.	.	.	.
.	.	.	8f/J	[[	.	.	.	.	.
!!LO:LB:g=original
=6	=6	=6	=6	=6	=6	=6	=6	=6	=6
!	!	!	!	!LO:HP:a	!	!	!	!	!
4c/	2.A-\_	.	8e-X/	<	2.r	.	.	.	.
.	.	.	4cc/	.	.	.	.	.	.
4d-/	.	.	.	.	.	.	.	.	.
.	.	.	8en/L	.	.	.	.	.	.
4B-/	.	.	8g/	.	.	.	.	.	.
.	.	.	8f/J	[[	.	.	.	.	.
*v	*v	*	*	*	*	*	*	*	*
=7	=7	=7	=7	=7	=7	=7	=7	=7
!	!	!	!LO:HP:a	!	!	!	!	!
2.A-;\]) 2.c	.	8.e-/L	>	2.r;	.	.	.	.
.	.	16a-/Jk	.	.	.	.	.	.
.	.	2e-;/)	]]	.	.	.	.	.
=8	=8	=8	=8	=8	=8	=8	=8	=8
!LO:TX:b:t=[segno]	!	!LO:TX:a:t=[segno]	!	!LO:TX:a:t=[segno]	!	!	!	!LO:DY:a
2.F\	.	8.r	p	4a-/	Gdy	Gdy	Cier-	p
.	.	(16c/	.	.	.	.	.	.
.	.	4f/) 4a-	.	4.a-/	cię	z o-	-pia-	.
.	.	4c'/ 4f 4a-	.	.	.	.	.	.
.	.	.	.	8cc\	nie	-czu	-łem	.
=9	=9	=9	=9	=9	=9	=9	=9	=9
*	*	*	*	*^	*	*	*	*
2.C/	.	8.r	.	4g/	2ryy	wi-	znik-	nie-	.
.	.	(16c/	.	.	.	.	.	.	.
.	.	4e-/) 4g	.	4g/	.	-dzę	-niesz,	-raz,	.
.	.	4c'/ 4e- 4g	.	8r	4r	.	.	.	.
.	.	.	.	8g/	.	nie	nie	.	.
=10	=10	=10	=10	=10	=10	=10	=10	=10	=10
2.D-\	.	8.r	.	8g\	4g/	wzdy-	mo-	nie	.
.	.	.	.	8gN\	.	.	.	my-	.
.	.	(16A-/	.	.	.	.	.	.	.
.	.	4d-/) 4f	.	4.f/	2ryy	-cham	-gę	-śla-	.
.	.	4c'/ 4f	.	.	.	.	.	.	.
.	.	.	.	8a-/	.	nie	ni	-łem	.
!!LO:LB:g=original
=11	=11	=11	=11	=11	=11	=11	=11	=11	=11
*	*	*^	*	*	*	*	*	*	*
2.C/	.	(8.f/L	4Bn\	.	4a-/	2ryy	pła-	ra-	wca-	.
.	.	16dn/Jk	.	.	.	.	.	.	.	.
.	.	4en/	2B-X\	.	4g/	.	-czę	-zu,	-le,	.
.	.	8f/L	.	.	8r	4r	.	.	.	.
.	.	8g/J)	.	.	8cc/	.	Nie-	.	.	.
*	*	*v	*v	*	*	*	*	*	*	*
=12	=12	=12	=12	=12	=12	=12	=12	=12	=12
2.F\	.	8.r	.	4ccN\	2cc/	-tra-	W my-	A-	.
.	.	(16A-/	<	.	.	.	.	.	.
.	.	4c/) 4f 4a-	.	4ccN\	.	.	-śli	-bym	<
.	.	4c'/ 4f 4a-	.	4cc\	4cc/	-cę	mo-	przed	.
=13	=13	=13	=13	=13	=13	=13	=13	=13	=13
2.C/	.	8.r	.	2ee-\	2ryy	zmy-	-je-	to-	[
.	.	(16A-/	.	.	.	.	.	.	.
.	.	4e-/) 4a-	.	.	.	.	.	.	.
.	.	4A-'/ 4en 4a-	[	8a-\	4a-/	-słów	-go	-bą	.
.	.	.	.	8a-N\	.	.	od-	.	.
=14	=14	=14	=14	=14	=14	=14	=14	=14	=14
2.D-\	.	8.r	.	8cc/	4cc\	kie-	-no-	szedł	.
.	.	.	.	8ccN/	.	-dy	.	wy-	.
.	.	(16A-/	.	.	.	.	.	.	.
.	.	4f/) 4a-	.	4cc\	2ryy	cię	-wić	-le-	.
.	.	4f-X'/ 4a-	.	4cc\	.	o-	o-	-wać	.
=15	=15	=15	=15	=15	=15	=15	=15	=15	=15
*	*	*^	*	*	*	*	*	*	*
2.E-\	.	(4a-/	8.e-\L	>	4cc\	2ryy	-ba-	-bra-	ża-	.
.	.	.	16dn\Jk	.	.	.	.	.	.	.
.	.	4f/	2d-X\	.	4b-\	.	-czę	-zu.	-le	.
.	.	4g/	.	.	8r	4r	.	.	.	.
!	!	!	!	!	!	!	!	!	!	!LO:DY:a
.	.	.	.	]]	8b-/	.	Je-	Je-	.	p
*	*	*	*	*	*v	*v	*	*	*	*
!!LO:PB:g=original
=16	=16	=16	=16	=16	=16	=16	=16	=16	=16
4FF#X/	.	4a-/)	(<4.c\	p	(4ee-\	-dnak-	-dnak-	Idąc	.
4E-\ 4A-	.	2ryy	.	.	4ddn\)	.	.	.	.
.	.	.	8Bn\	.	.	.	.	.	.
4E-\ 4A-	.	.	8c\L	.	4cc\	-że	-że	bez	.
.	.	.	8dn\J	.	.	.	.	.	.
*	*	*v	*v	*	*	*	*	*	*
=17	=17	=17	=17	=17	=17	=17	=17	=17
4GG/	.	4.e-\	.	2g/	gdy	nie-	ce-	.
4E-\ 4G	.	.	.	.	.	.	.	.
.	.	8dn\	.	.	.	.	.	.
4E-\ 4G	.	8c\L	.	4g/	cię	-raz	-lu	.
.	.	8d\J)	.	.	.	.	.	.
=18	=18	=18	=18	=18	=18	=18	=18	=18
4FFn/	.	(4.e-/	.	8a-/	dłu-	czu-	nie	.
.	.	.	.	8b-/	-go	-ję	pil-	.
4F\ 4A- 4c	.	.	.	4cc\	nie	mi-	-nu-	.
.	.	8dn/	.	.	.	.	.	.
4F\ 4A-	.	8c/L	.	4a-/	o-	-mo	-jąc	.
.	.	8d/J	.	.	.	.	.	.
=19	=19	=19	=19	=19	=19	=19	=19	=19
4C/	.	4.e-/	<	4a-/	-glą-	chę-	dro-	.
4G\ 4c	.	.	.	4g/	-dam,	-ci,	-gi,	.
.	.	8g/	.	.	.	.	.	.
4G\ 4c	.	8an/L	.	4r	.	.	.	.
.	.	8bn/J)	[[	.	.	.	.	.
=20	=20	=20	=20	=20	=20	=20	=20	=20
!	!	!	!	!LO:TX:a:Bi:t=espress.	!	!	!	!LO:DY:a
4AAn/	.	4.cc\	.	4ee-\	Cze-	Że	Sam	<
4F#X\ 4c	.	.	.	4ddn\	-goś	on	nie	.
.	.	8bn\	.	.	.	.	.	.
4F#\ 4c	.	8cc\L	.	4cc\	mi	jest	poj-	[
.	.	8ddn\J	.	.	.	.	.	.
!!LO:LB:g=original
=21	=21	=21	=21	=21	=21	=21	=21	=21
4BB-/	.	4.ee-\	.	2g/	brak-	zaw-	-mu-	.
4G\ 4e-	.	.	.	.	.	.	.	.
.	.	8ddn\	.	.	.	.	.	.
4G\ 4e-	.	8cc\L	.	4g/	-nie	-sze	-ję	.
.	.	8b-\J	.	.	.	.	.	.
=22	=22	=22	=22	=22	=22	=22	=22	=22
4BB-/	.	8a-/L	.	8a-/	Ko-	bli-	jak	.
.	.	8g/	.	8b-/	-goś	-zko	w twe	.
!	!	!	!	!	!	!	!	!LO:DY:a
4A-\ 4B-	.	8f/	.	4cc\	wi-	mej	zaj-	>
.	.	8e-/	.	.	.	.	.	.
4A-\ 4B-	.	8c/	.	4a-/	-dzieć	pa-	-dę	.
.	.	8dn/J	.	.	.	.	.	.
=23	=23	=23	=23	=23	=23	=23	=23	=23
4E-\	.	4f/	.	4a-/	żą-	-mię-	pro-	.
4G\ 4B-	.	4e-/	.	4g/	-dam	-ci	-gi	]
4G\ 4B-	.	4r	.	8r	.	.	.	.
!	!	!	!	!LO:TX:a:Bi:t=poco string.	!	!	!	!
.	.	.	.	8g/	I	I	I	.
=24	=24	=24	=24	=24	=24	=24	=24	=24
!	!	!LO:TX:b::Bi:t=poco string.	!	!	!	!	!	!
2.D-\	.	8.r	.	(4g/	tę-	zno-	wcho-	.
.	.	(16B-/	.	.	.	.	.	.
.	.	4e-/) 4g	.	4f/)	.	.	.	.
.	.	4B-'/ 4e- 4g	.	4e-/	-skniąc	-wu	-dząc	.
=25	=25	=25	=25	=25	=25	=25	=25	=25
2.C/	.	8.r	.	4a-/	so-	so-	so-	.
.	.	(16A-/	.	.	.	.	.	.
.	.	4e-/) 4a-	.	4a-/	-bie	-bie	-bie	.
.	.	4A-'/ 4e- 4a-	.	8r	.	.	.	.
.	.	.	.	8a-/	za-	za-	za-	.
!!LO:LB:g=original
=26	=26	=26	=26	=26	=26	=26	=26	=26
2.BB-/	.	8.r	.	4dd-\	-da-	-da-	-da-	.
.	.	(16d-/	.	.	.	.	.	.
.	.	4a-/) 4dd-	.	4dd-\	-ję	-ję	-ję	.
.	.	4d-'/ 4g 4dd-	.	4dd-\	py-	py-	py-	.
=27	=27	=27	=27	=27	=27	=27	=27	=27
!	!	!	!	!LO:TX:a:Bi:t=riten.	!	!	!	!
2.AAn/	.	8.r	.	2dd-\	-ta-	-ta-	-ta-	.
!	!	!LO:TX:b:Bi:t=riten.	!	!	!	!	!	!
.	.	(16e-/	.	.	.	.	.	.
.	.	4g-X/) 4dd-	.	.	.	.	.	.
.	.	4e-'/ 4g- 4cc	.	4cc\	-nie	-nie	-nie	.
=28	=28	=28	=28	=28	=28	=28	=28	=28
!	!	!LO:TX:a:B::t=a tempo	!	!LO:TX:a:B:t=a tempo e con affetto	!	!	!	!
2.BB-/	.	8.r	.	4cc\	Czy	Czy	Co	.
.	.	(16d-/	.	.	.	.	.	.
.	.	4f/) 4b-	.	4.b-\	to	to	tu	.
.	.	4d-'/ 4f	.	.	.	.	.	.
.	.	.	.	8a-/	jest	jest	mnie	.
=29	=29	=29	=29	=29	=29	=29	=29	=29
2.C/	.	8.r	.	2ee-\	przy-	przy-	wio-	.
.	.	(16c/	.	.	.	.	.	.
.	.	4e-/) 4b-	.	.	.	.	.	.
.	.	4c'/ 4e- 4a-	.	4a-/	-jaźń	-jaźń	-dło?	.
=30	=30	=30	=30	=30	=30	=30	=30	=30
2.D-\	.	8.r	.	8g/	czy	czy	przy-	.
.	.	.	.	8a-/	to	to	-jaźń	.
.	.	(16G/	.	.	.	.	.	.
.	.	4B-/) 4g	.	4g/	jest	jest	czy	.
.	.	4G'/ 4Bn 4f	.	4f/	ko-	ko-	ko-	.
!!LO:PB:g=original
=31	=31	=31	=31	=31	=31	=31	=31	=31
2.C/	.	8.r	.	4dd-\	-cha-	-cha-	-cha-	.
.	.	(16G/	.	.	.	.	.	.
.	.	4c/) 4f	.	2cc\	-nie	-nie	-nie	.
.	.	4G'/ 4c 4en	.	.	.	.	.	.
=32	=32	=32	=32	=32	=32	=32	=32	=32
2.D-\	.	8.r	<	4b-/	Czy	Czy	Co	.
!	!	!	!	!	!	!	!	!LO:HP:a
.	.	(16B-/	.	.	.	.	.	<
.	.	4e-/) 4g	.	4g/	to	to	tu	.
.	.	4B-'/ 4e- 4g	.	4e-/	jest	jest	mnie	.
=33	=33	=33	=33	=33	=33	=33	=33	=33
2.C/	.	8.r	.	4.ee-\	przy-	przy	wio-	.
.	.	(16A-/	.	.	.	.	.	.
.	.	4e-/) 4a-	.	.	.	.	.	.
.	.	.	.	8dd-\	-jaźń,	jaźń	-dło	.
.	.	4A-'/ 4en 4a-	[[	8cc\	czy	czy	przy-	.
.	.	.	.	8b-\	to	to	-jaźń	[[
=34	=34	=34	=34	=34	=34	=34	=34	=34
!	!	!	!	!	!	!	!	!LO:DY:a
2.D-\	.	8.r	p	([2.a-/	jest_	jest_	czy_	p
.	.	(16A-/	.	.	.	.	.	.
.	.	4f/) 4a-	.	.	.	.	.	.
.	.	4A-'/ 4f 4a-	.	.	.	.	.	.
=35	=35	=35	=35	=35	=35	=35	=35	=35
2.Dn\	.	8.r	<	4a-/]	.	.	.	.
.	.	(16B-/	.	.	.	.	.	.
.	.	4f/) 4a-	.	4g/)	.	.	.	.
!	!	!	!	!	!	!	!	!LO:DY:a
.	.	4Bn'/ 4f 4a-	[[	4a-/	ko-	ko-	ko-	<
=36	=36	=36	=36	=36	=36	=36	=36	=36
4EE-/	.	4r	.	[2.ff\	-cha-	-cha-	-cha-	.
!	!	!LO:TX:b:Bi:t=poco	!	!	!	!	!	!
4E-\ 4A- 4d-	.	(4.e-/	.	.	.	.	.	.
4E-\ 4A- 4d-	.	.	.	.	.	.	.	.
.	.	8en/	.	.	.	.	.	.
!!LO:LB:g=original
=37	=37	=37	=37	=37	=37	=37	=37	=37
!	!	!LO:TX:b:Bi:t=animando	!	!	!	!	!	!
4EE-/	.	8f/L	.	2.ff\_	.	.	.	.
.	.	8cc/	.	.	.	.	.	.
4E-\ 4A- 4d-	.	8b-/	.	.	.	.	.	.
.	.	8a-/	.	.	.	.	.	.
4E-\ 4A- 4d-	.	8g/	.	.	.	.	.	.
.	.	8a-/J	.	.	.	.	.	.
=38	=38	=38	=38	=38	=38	=38	=38	=38
4EE-/	.	8f/L	.	(2.ff\]	.	.	.	[
!	!	!	!	!	!	!	!	!LO:HP:a
.	.	8cc/	.	.	.	.	.	>
4E-\ 4A- 4d-	.	8b-/	.	.	.	.	.	.
.	.	8a-/	.	.	.	.	.	.
4E-\ 4A- 4d-	.	8f/	.	.	.	.	.	.
.	.	8g/J	.	.	.	.	.	.
=39	=39	=39	=39	=39	=39	=39	=39	=39
4EE-/	.	8e-/L	.	2.g/)	.	.	.	]]
.	.	8cc/	.	.	.	.	.	.
4E-\ 4G 4d-	.	8b-/	.	.	.	.	.	.
.	.	8g/	.	.	.	.	.	.
4E-\ 4G 4d-	.	8f/	.	.	.	.	.	.
.	.	8g/J	.	.	.	.	.	.
=40	=40	=40	=40	=40	=40	=40	=40	=40
*^	*	*	*	*	*	*	*	*
4AA-/	4ryy	.	8e-/)	.	2a-/	-nie.	-nie.	-nie.	.
.	.	.	4a-/	.	.	.	.	.	.
(4d-/	[2A-\	>	.	.	.	.	.	.	.
!	!	!	!LO:TX:b:Bi:t=riten.	!	!	!	!	!	!
.	.	.	(8en/L	.	.	.	.	.	.
4B-/	.	.	8g/	.	4r	.	.	.	.
.	.	.	8f/J	.	.	.	.	.	.
=41	=41	=41	=41	=41	=41	=41	=41	=41	=41
4c/	2.A-\_	.	8e-X/	.	2.r	.	.	.	.
.	.	.	4cc\	.	.	.	.	.	.
4d-/	.	.	.	.	.	.	.	.	.
.	.	.	8en/L	.	.	.	.	.	.
4B-/	.	.	8g/	.	.	.	.	.	.
.	.	]	8f/J	.	.	.	.	.	.
=42	=42	=42	=42	=42	=42	=42	=42	=42	=42
2.c;\)	2.A-\]	.	8.e-X/L	>	2.r	.	.	.	.
.	.	.	16a-/Jk	.	.	.	.	.	.
.	.	.	2e-;/)	]]	.	.	.	.	.
*v	*v	*	*	*	*	*	*	*	*
!LO:TX:b:t=Dal segno. [segno]	!	!LO:TX:a:t=[segno]	!	!LO:TX:a:t=[segno]	!	!	!	!
==	==	==	==	==	==	==	==	==
*-	*-	*-	*-	*-	*-	*-	*-	*-
!!!RDF**kern: N = cue size
!!!system-decoration: s1[(s2,s3)]
!!!ENC: Filip Voros
!!!END: 2022-03-14
!!!AIN: 2 piano
!!!ENC: Urszula Świątek
!!!END: 2022-03-20
